X: 21281
T: the RUNAWAY BRIDE
%R: jig
B: "Edinburgh Repository of Music" v.2 p.128 #1
F: http://digital.nls.uk/special-collections-of-printed-music/pageturner.cfm?id=87776133
Z: 2015 John Chambers <jc:trillian.mit.edu>
M: 6/8
L: 1/8
K: D
ag |\
f2f {f}ede | d3 a3 | b2a {a}g2f | f3 e2a/g/ |\
f2f {f}ede | d3 a3 | bc'd' c'e'c' | a3 a2 :|
|: a |\
bc'd' c'd'e' | a3 agf | b2a g2f | e3 e2a/g/ |\
f2f {f}ede | d3 a2a | bc'd' c'e'c' | a3 a2 :|
